assets/svg/done.svg

<svg width="386" height="387" viewBox="0 0 386 387" fill="none" xmlns="http://www.w3.org/2000/svg">
<path d="M377.435 168.741L351.185 138.245C346.167 132.454 342.114 121.646 342.114 113.925V81.1131C342.114 60.6539 325.322 43.8619 304.863 43.8619H272.051C264.523 43.8619 253.521 39.8086 247.731 34.7903L217.235 8.54076C203.917 -2.84692 182.107 -2.84692 168.596 8.54076L138.293 34.9834C132.502 39.8086 121.501 43.8619 113.973 43.8619H80.5823C60.1231 43.8619 43.3311 60.6539 43.3311 81.1131V114.118C43.3311 121.646 39.2779 132.454 34.4526 138.245L8.396 168.934C-2.79867 182.251 -2.79867 203.869 8.396 217.187L34.4526 247.875C39.2779 253.666 43.3311 264.474 43.3311 272.002V305.007C43.3311 325.466 60.1231 342.258 80.5823 342.258H113.973C121.501 342.258 132.502 346.311 138.293 351.33L168.789 377.579C182.107 388.967 203.918 388.967 217.428 377.579L247.924 351.33C253.714 346.311 264.523 342.258 272.244 342.258H305.056C325.515 342.258 342.307 325.466 342.307 305.007V272.195C342.307 264.667 346.36 253.666 351.378 247.875L377.628 217.38C388.823 204.062 388.823 182.058 377.435 168.741ZM273.209 156.581L179.984 249.805C177.282 252.508 173.615 254.052 169.754 254.052C165.894 254.052 162.227 252.508 159.525 249.805L112.815 203.097C107.218 197.499 107.218 188.235 112.815 182.637C118.413 177.04 127.677 177.04 133.275 182.637L169.754 219.117L252.749 136.121C258.347 130.524 267.611 130.524 273.209 136.121C278.806 141.719 278.806 150.983 273.209 156.581Z" fill="url(#paint0_linear_306_202)"/>
<defs>
<linearGradient id="paint0_linear_306_202" x1="193" y1="0" x2="193" y2="386.12" gradientUnits="userSpaceOnUse">
<stop stop-color="#9FF199"/>
<stop offset="1" stop-color="#8BB692"/>
</linearGradient>
</defs>
</svg>

<svg xmlns="http://www.w3.org/2000/svg" width="386" height="387" fill="none"><path fill="url(#a)" d="m377.435 168.741-26.25-30.496c-5.018-5.791-9.071-16.599-9.071-24.32V81.113c0-20.46-16.792-37.251-37.251-37.251h-32.812c-7.528 0-18.53-4.053-24.32-9.072L217.235 8.54c-13.318-11.387-35.128-11.387-48.639 0l-30.303 26.443c-5.791 4.826-16.792 8.879-24.32 8.879h-33.39c-20.46 0-37.252 16.792-37.252 37.251v33.005c0 7.528-4.053 18.336-8.878 24.127L8.396 168.934c-11.195 13.317-11.195 34.935 0 48.253l26.057 30.688c4.825 5.791 8.878 16.599 8.878 24.127v33.005c0 20.459 16.792 37.251 37.251 37.251h33.391c7.528 0 18.529 4.053 24.32 9.072l30.496 26.249c13.318 11.388 35.129 11.388 48.639 0l30.496-26.249c5.79-5.019 16.599-9.072 24.32-9.072h32.812c20.459 0 37.251-16.792 37.251-37.251v-32.812c0-7.528 4.053-18.529 9.071-24.32l26.25-30.495c11.195-13.318 11.195-35.322-.193-48.639Zm-104.226-12.16-93.225 93.224a14.458 14.458 0 0 1-10.23 4.247c-3.86 0-7.527-1.544-10.229-4.247l-46.71-46.708c-5.597-5.598-5.597-14.862 0-20.46 5.598-5.597 14.862-5.597 20.46 0l36.479 36.48 82.995-82.996c5.598-5.597 14.862-5.597 20.46 0 5.597 5.598 5.597 14.862 0 20.46Z"/><defs><linearGradient id="a" x1="193" x2="193" y1="0" y2="386.12" gradientUnits="userSpaceOnUse"><stop stop-color="#9FF199"/><stop offset="1" stop-color="#8BB692"/></linearGradient></defs></svg>
